gama.ui.shared/icons_svg/dark/views/perspective.simulation.svg

<svg height="24.75" viewBox="-347.085 -3025.16 24.75 24.75" width="24.75" xmlns="http://www.w3.org/2000/svg"><g fill="none"><path d="m-329.90993-3024.7847h-13.60001c-1.76731 0-3.19999 1.4327-3.19999 3.2v13.6c0 1.7673 1.43268 3.2 3.19999 3.2h13.60001c1.76731 0 3.2-1.4327 3.2-3.2v-13.6c0-1.7673-1.43269-3.2-3.2-3.2z" fill="#8797a7"/><path d="m-325.9099-3020.7847h-13.6c-1.76733 0-3.2 1.4327-3.2 3.2v13.6c0 1.7673 1.43267 3.2 3.2 3.2h13.6c1.7673 0 3.2-1.4327 3.2-3.2v-13.6c0-1.7673-1.4327-3.2-3.2-3.2z" fill="#66727e"/><path d="m-335.40283-3015.7292v9.7992c0 .2405.19383.4344.43448.4344.0869 0 .17379-.0267.24065-.0734l7.1254-4.833c.23394-.1603.2941-.481.13368-.715-.03343-.0535-.08022-.1003-.13368-.1337l-7.1254-4.8393c-.20054-.134-.4679-.0804-.6016.1135-.0468.0735-.07353.1537-.07353.2405zm-.66842 0c0-.2206.06685-.4345.18715-.6218.3476-.501 1.0294-.635 1.5374-.294l7.1254 4.8328c.127.0869.23394.1938.31415.3142.36765.5414.22725 1.2766-.31415 1.6443l-7.1254 4.8327c-.1805.127-.40107.187-.62165.187-.60825 0-1.1029-.4945-1.1029-1.1028z" fill="#fff"/></g></svg>

<?xml version="1.0" encoding="UTF-8" standalone="no"?>
<!DOCTYPE svg PUBLIC "-//W3C//DTD SVG 1.1//EN" "http://www.w3.org/Graphics/SVG/1.1/DTD/svg11.dtd">
<svg xmlns="http://www.w3.org/2000/svg" xmlns:xl="http://www.w3.org/1999/xlink" version="1.1" xmlns:dc="http://purl.org/dc/elements/1.1/" viewBox="-347.08493 -3025.1597 24.750016 24.75" width="24.750016" height="24.75">
  <defs/>
  <g id="SOURCES" stroke-opacity="1" fill="none" stroke="none" fill-opacity="1" stroke-dasharray="none">
    <title>SOURCES</title>
    <g id="SOURCES_Dark">
      <title>Dark</title>
      <g id="Graphic_12168">
        <path d="M -329.90993 -3024.7847 L -343.50994 -3024.7847 C -345.27725 -3024.7847 -346.70993 -3023.352 -346.70993 -3021.5847 L -346.70993 -3007.9847 C -346.70993 -3006.2174 -345.27725 -3004.7847 -343.50994 -3004.7847 L -329.90993 -3004.7847 C -328.14262 -3004.7847 -326.70993 -3006.2174 -326.70993 -3007.9847 L -326.70993 -3021.5847 C -326.70993 -3023.352 -328.14262 -3024.7847 -329.90993 -3024.7847 Z" fill="#8797a7"/>
      </g>
      <g id="Graphic_12167">
        <path d="M -325.9099 -3020.7847 L -339.5099 -3020.7847 C -341.27723 -3020.7847 -342.7099 -3019.352 -342.7099 -3017.5847 L -342.7099 -3003.9847 C -342.7099 -3002.2174 -341.27723 -3000.7847 -339.5099 -3000.7847 L -325.9099 -3000.7847 C -324.1426 -3000.7847 -322.7099 -3002.2174 -322.7099 -3003.9847 L -322.7099 -3017.5847 C -322.7099 -3019.352 -324.1426 -3020.7847 -325.9099 -3020.7847 Z" fill="#66727e"/>
      </g>
      <g id="Graphic_12166">
        <path d="M -335.40283 -3015.7292 L -335.40283 -3005.93 C -335.40283 -3005.6895 -335.209 -3005.4956 -334.96835 -3005.4956 C -334.88145 -3005.4956 -334.79456 -3005.5223 -334.7277 -3005.569 L -327.6023 -3010.402 C -327.36836 -3010.5623 -327.3082 -3010.883 -327.46862 -3011.117 C -327.50205 -3011.1705 -327.54884 -3011.2173 -327.6023 -3011.2507 L -334.7277 -3016.09 C -334.92824 -3016.224 -335.1956 -3016.1704 -335.3293 -3015.9765 C -335.3761 -3015.903 -335.40283 -3015.8228 -335.40283 -3015.736 Z M -336.07125 -3015.7292 C -336.07125 -3015.9498 -336.0044 -3016.1637 -335.8841 -3016.351 C -335.5365 -3016.852 -334.8547 -3016.986 -334.3467 -3016.645 L -327.2213 -3011.8122 C -327.0943 -3011.7253 -326.98736 -3011.6184 -326.90715 -3011.498 C -326.5395 -3010.9566 -326.6799 -3010.2214 -327.2213 -3009.8537 L -334.3467 -3005.021 C -334.5272 -3004.894 -334.74777 -3004.834 -334.96835 -3004.834 C -335.5766 -3004.834 -336.07125 -3005.3285 -336.07125 -3005.9368 Z" fill="white"/>
      </g>
    </g>
  </g>
</svg>
